X:1
T:Title
%%score { ( 1 3 ) | ( 2 4 5 ) }
L:1/8
M:4/4
K:Bb
V:1 treble nm="Grand Piano"
V:3 treble 
V:2 bass 
V:4 bass 
V:5 bass 
V:1
 z4 z2[Q:1/4=94] [DF]2 | [Fd]2 [Ec]2 [DB]2 [EG]2 | (3[DF][DF][DF] (3[DF][CE][B,D] [DF]4 | z4 A4 | %4
 (3[FB][FB][FB] (3[Fc][Fc][Fc] [Fd]2 [DF]2 | [Fd]2 [Ec]2 [DB]2 [EG]2 | %6
 (3[DF][DF][DF] (3[DF][CE][B,D] [DF]3 [DF] | [EG]>[FA] [GB]>G F>F B>d |[M:3/4] c4 z2 |] %9
V:2
 z4 z2 [B,,B,]2 | [B,,B,]2 [B,,G,]2 [B,,F,]2 [B,,G,]2 | %2
 (3[B,,B,][B,,B,][B,,B,] (3[B,,B,][B,,F,][B,,F,] [B,,B,]4 | z4 [CF]4 | %4
 (3[D,B,][D,B,][D,B,] (3[C,A,][C,A,][C,A,] [B,,B,]2 [B,,B,]2 | %5
 [B,,B,]2 [B,,G,]2 [B,,F,]2 [B,,G,]2 | %6
 (3[B,,B,][B,,B,][B,,B,] (3[B,,B,][B,,F,][B,,F,] [B,,B,]3 [B,,B,] | %7
 [E,B,]>[E,B,] [E,E]>[E,B,E] [F,B,D]>[F,B,D] [F,D]>[F,B,F] |[M:3/4] [F,A,F]2 [F,,F,]2 [B,,F,]2 |] %9
V:3
 x8 | x8 | x8 | (3AAA (3AGF z2 E,2 | x8 | x8 | x8 | x8 |[M:3/4] z2 E2 [DB]2 |] %9
V:4
 x8 | x8 | x8 | (3[F,CE][F,CE][F,CE] (3[F,CE][F,B,E][F,A,E-] E2 z2 | x8 | x8 | x8 | x8 | %8
[M:3/4] x6 |] %9
V:5
 x8 | x8 | x8 | z4 F,2 z2 | x8 | x8 | x8 | x8 |[M:3/4] x6 |] %9

